packages/core/src/svgs/tokens/mono/DEL.svg

<svg width="24" height="24" viewBox="0 0 24 24" fill="none" xmlns="http://www.w3.org/2000/svg">
<path d="M19.9999 2H4V5.99999H15.3332V17.9999H4V22H19.9999V2ZM11.3333 10H4V14H11.3333V10Z" fill="white"/>
</svg>

<svg xmlns="http://www.w3.org/2000/svg" width="24" height="24" fill="none" viewBox="0 0 24 24">
    <path fill="#fff" d="M20 2H4v4h11.333v12H4v4h16zm-8.667 8H4v4h7.333z"/>
</svg>
